X:1
T:D major Timothy Swan, 1797 Revised 1801
T:Charles Wesley, 1762 (Song of Solomon Chapter 2)
T:Solomon's Song
T:Transcribed from Swan's New England Harmony, 1801.
%%score [ 1 2 3 ( 4 5 ) ]
L:1/8
Q:1/4=70
M:2/4
K:D
V:1 treble nm="Tr." snm="Tr."
V:2 treble nm="C." snm="C."
V:3 treble-8 nm="T." snm="T."
V:4 bass nm="B." snm="B."
V:5 bass 
V:1
 A4 | d2 GA | d3 A | df dB | A3 c | ec AA | B3 e | d/c/B/A/ df | A2 z2 | d2 (B2 | c)A ff | %11
"^tops he bounds.                                                    He     flies     ex  – ul  – ting    o'er     the   hills,                                                                                     And" e2 e2 | %12
 e4 | z4 |[M:6/8] z2 z z2 A | AFA d>ed | f>g f/e/ (f d2) | z6 | z2 z z2 A | %19
"^all     my  soul  with  transport  fills,  He     flies       ex – ul     –    ting   o'er       the  hills, ______________  And  all   my    soul   with  trans  –" Ace e2 f | %20
 Bcd cAc | dff e2 A | Afd (e3 | fd)B A2 A | A2 d (ecA | %25
"^–  port fills,  And  all               my                 soul   with trans          –        port  fills,    He     flies       ex  – ul   –   ting     o'er       the  hills,    And" d2) d f2 A | %26
 B3 B3 | A2 e (dAd | B2) B c<Ae | d2 d A/F/Ad | f/g/fd Bgf | %31
"^all       my   soul     with   transport  fills." ecA d2 A | AFA A3 | z6 | %34
[M:3/4][Q:1/4=100] (d2 A2 B/A/)G | (F2 A2) B2 | (c2 A2) ce | e4 fe | (d3 e) dc | (B2 e2) eA | %40
 (TB2 A2) A/B/c | d4 ec | (A2 d2) fA | (B2 A2) Bd | (ce A2) A2 | A4 z2 |[M:2/4][Q:1/4=50] df A2 | %47
 A B/d/ ce | (A2 d)d | efg/f/ e/d/ | (e2 c)A | A3 d | (f2 g/f/) e/d/ | d/e/d/e/ ff | %54
 (e2 e/d/) c/B/ | A2 e/d/ c/B/ | A2 AA | d4 | fdA/F/A | (A2 c)e | f>e dB |{B} A4 | d>e ff | B3 f | %64
 fe ed | A2 AA | d2 AA | f2 z2 |[Q:1/4=50] fd BB | c/A/ c/e/ d2 | AA d/c/ B/A/ | (d2 e/d/) e/f/ | %72
 d4 |] %73
V:2
"^The  voice   of       my    be  –  lo – ved  sounds,  While  o'er            the  mountain tops        he      bounds,    While  o'er        the  mountain" F4 | %1
 A2 AF | F3 F | DF FA | A3 A | A3 A | B3 B | A2 A2 | A2 z2 | F2 (GB | A)A AF | %11
"^tops he bounds.                                                  He      flies, ____________                                              He   flies    ex  – ul  –  ting   o'er     the  hills,   And" G2 B2 | %12
 A4 | z4 |[M:6/8] z2 z z2 F | A3- A3 | z2 z z2 A | d2 d d2 d | GFE F2 F | %19
"^all      my   soul  with  transport  fills,  He    flies ____________            ex   –  ul   –  ting  o'er     the    hills,__________   And   all       my  soul       with" A2 A A2 A | %20
 B2 B A2 A | (F2 G A2) A | AFd B2 A | (AFB A2) A | FAd c2 A | %25
"^trans      –      port  fills,   And all        my    soul  with transport  fills.      He   flies     ex  –  ul   –  ting   o'er        the   hills,       And  all       my" (FDF A2) A | %26
 F2 B B2 d | A2 B AFA | B2 d A2 A | AFA DFA | d2 A GBG | %31
"^soul   with  trans– port   fills, __________                       Gent –  ly              doth    he       chide    my      stay.   A  –   rise, ____   my       love,     and" E2 A FDF | %32
 A3- A3 | z6 |[M:3/4] F4 F2 | F4 B2 | A4 A2 | A4 FG | (A3 B) AG | (F2 A2) EF | %40
"^come       a      –    way,       A   –   rise,          my      love,     and     come          a –  way.           Come  a –way,   Come  a – way.       Gent     –     ly" (GB A2) A2 | %41
 F4 A2 | (AF d2) c2 | (B2 A2) dF | E4 A2 | F4 z2 |[M:2/4] AA F2 | AA A2 | A3 A | %49
"^doth _______   he       chide    my   stay.   A  –  rise, ______   my       love, _________      and     come  ______   a   –  way,  Come  a – way.  Come  a–way," A2 A2 | %50
 A3 A | A3 A | Fd AA | dA F G/F/ | (E2 B)B | A2 AA | F2 AA | F4 | %58
"^Gent  –  ly            doth        he    chide    my           stay.          Rise,         my    love,        and    come      a  – way,  Come  a-way. Come  a-way." AF Ad | %59
 A3 A | A2 AB | F4 | FA FF | B3 d | c3 B | A2 AA | F2 AA | A2 z2 | %68
"^Gent  –  ly        doth   he          chide   my     stay.        Rise,    my       love,       and        come ____________    a     –   way." AF G/F/ E/D/ | %69
 AA F2 | dc B A/G/ | (FA A/B/) A/G/ | F4 |] %73
V:3
 d4 | BA df | A3 d | BA df | e3 e | e/f/e/d/ ef | g3 g | f/e/f/g/ af | fe z2 | d2 (Bg | f)e a/f/d | %11
"^tops he bounds.     He        flies     ex– ul  –  ting   o'er      the   hills,                                                      o'er    the   hills,                                           And" c2 B2 | %12
 A4 | z2 A2 |[M:6/8] AFA d>ed | f>g f/e/ (f d2) | z6 | f>g f/e/ (f d2) | z4 z e | %19
"^all       my  soul  with transport  fills,   He   flies ____________________________________________         He    flies      ______________________________________________" e>f e/d/ cAA | %20
 ged c2 A | (d/c/dd e/d/ee | f/e/ff g2) A | (B3 c3 | d/c/dd e/d/ee | %25
"^_____________     He     flies     ex –ul   –  ting    o'er    the  hills,   And   all             my                   soul  with  trans – port    fills,       And    all     my" f3- f2) d | %26
 f>ed dAd | e>fg f2 F | G3 e3 | fed dAA | A2 A Bdd | %31
"^soul   with  trans– port   fills, __________" c/d/ee f/e/fd | d3- d3 | z6 |[M:3/4] (f2 d2) dB | %35
 A4 ce | e4 fe | e4 de | f3 g fe | (d2 A2) ef | (g2 f2) ed | (Td2 A2) de | (f3 g) fe | %43
 (Td2 A2) B2 | (e3 f) Te2 | d4 z2 |[M:2/4] d/c/ B/A/ d2 | e/f/ g/f/ fe | (F A2) A | (A d2) d | %50
 (c e2) e | e3 f | (d2 d/c/) d/e/ | (f2 g/f/) e/d/ | (ea g/f/) e/d/ | Tc2 FA | A2 FA | A4 | %58
 fdf/e/f | A3 A | dA AG | F4 | B>c dc | B3 F | FA AB | A2 ee | f2 ee | f2 z2 | d/c/ B/A/ df | %69
 AA A2 | f/d/ c/e/ d/c/ B/A/ | B2 Tc2 | d4 |] %73
V:4
 D,4 | D,2 D,2 | D,3 D, | D,2 D,2 | A,3 A, | A,3 F, | E,3 E, | D,3 F, | A,2 z2 | D,2 E,2 | %10
 F,A, DD | %11
"^tops he bounds.       He         flies, _________       He     flies ______________     ex –  ul  –  ting   o'er  the   hills,   And   all    my    soul    with  trans–port" E2 E,2 | %12
 A,4 | z2 A,2 |[M:6/8] D,3- D,2 D | D3- D2 D, | A,F,A, D,2 D, | D,2 D, D2 D | E>DC DCB, | %19
"^___________________________________________________________\nOriginally titled \nThe Voice of My Beloved\n by Swan in 1797,\ncomprehensively revised in 1801 and retitled as \nSolomon's Song\n. \nThis is the 1801 edition.""^fills, ____________     He      flies _______________________         ex – ul     –   ting    o'er     the  hills,   And   all     my  soul  with  trans–port  fills,     He" A,3- A,2 F, | %20
 (G,A,B, A,F,A, | D,2) D, A,2 A, | D2 D ECA, | D2 B, A,F,A, | F,D,B, A,2 A, | %25
"^flies    ex–ul–ting     o'er   the   hills, ______________   And   all    my    soul  with transport    fills, _____________________________           And    all     my" DB,D D,2 D, | %26
 B,,2 B,, (G,A,B, | A,F,)E, D,2 D, | B,G,B, A,F,A, | (D,3- D,3- | D,2) F, G,2 G, | %31
"^soul   with  trans– port   fills, __________" A,2 A,, D,2 D, | D,3- D,3 | z6 |[M:3/4] D,4 D,E, | %35
 F,4 E,2 | [A,,A,]4 [A,,A,]2 | [A,,A,]4 B,C | (D3 E) DC | (B,2 A,2) A,F, | (E,2 D,2) A,2 | %41
 D,4 A,,2 | D,4 F,A, | (G,2 F,2) B,2 | A,4 A,,2 | D,4 z2 |[M:2/4] D,D, D,2 | A,/F,/ E,/D,/ A,2 | %48
 A,D, z2 | A,D, z2 | A,3 A, | A,3 D, | D,3 A, | D3 C/B,/ | (A,2 E,)E, | F,2 A,A, | F,2 A,F, | D,4 | %58
 D,3 D, | F,A, z2 | D,3 E, | F,A, z2 | B,F, B,F, | G,>F, E,D, | A,3 G, | F,2 A,A, | D2 A,A, | %67
 D2 z2 | D,D, G,/F,/ E,/D,/ | F,A, D,2 | D,A, B,/C/ D/E/ | D2 A,2 | D,4 |] %73
V:5
 x4 | x4 | x4 | x4 | x4 | x4 | x4 | x4 | x4 | x4 | x4 | x4 | x4 | x4 |[M:6/8] x6 | x6 | x6 | x6 | %18
 x6 | x6 | x6 | x6 | x6 | x6 | x6 | x6 | x6 | x6 | x6 | x6 | x6 | x6 | x6 | x6 |[M:3/4] x6 | x6 | %36
 x6 | x6 | x6 | x6 | x6 | x6 | x6 | x6 | x6 | x6 |[M:2/4] x4 | x4 | x4 | x4 | x4 | x4 | x4 | x4 | %54
 x4 | x4 | x4 | x4 | x4 | x4 | x4 | x4 | x4 | x4 | x4 | x4 | x4 | F,D, x2 | x4 | x4 | x4 | x4 | %72
 x4 |] %73

